X:87
T:Prusian Dance. Ru2.087, The
%%VWML:RutherfordVol2-2249-p44-0
F:http://www.vwml.org/record/RutherfordVol2/2249/p44
B:RUTHERFORD Complete Collection of 200 Country Dances Vol.2; 1759.
Z:vmp.Mike Hicken 2015 www.village-music-project.org.uk
M:6/8
Q:3/8=100
K:G
def gfe|d2d dcB|cde dcB|ABG FED|
def gfe|d2d def|gfe AB^c|d3 D3 :|
|: dDd cDc|BAG AFD|dDd cDc|BAG AFD|
EFG ABc|def gdB|ecA dBF|G3 G,3 :|
W:
W: ????? & right hands across quite round
W: .|  foot it & left back again :|  cast off two Cu: lead
W: to the top & cast off .|.  lead thro the 3d Cu: cast up
W: into the 2d Cu: Place Right and Left at top :|.
T:Strike Home ye Britton's. Ru2.088
L:1/8
B:RUTHERFORD Complete Collection of 200 Country Dances Vol.2; 1759.
Z:vmp.Mike Hicken 2015 www.village-music-project.org.uk
M:C|
Q:1/4=100
K:G
g|egdg B G2g|egdg aA2g|egdg BGcA|dBec BG2 :|
|:d|BdAd BG2A|BcdB cA2d|BdAd BdGg|fedc BG2 :|
W:
W: The first Cu: foot it to the 2d Wo. & turn her .|
W: the same to the 2d Man :|  cross over and turn
W: your Partner .|.  Right & Left at top :|.
